; generated by PrusaSlicer 2.5.2+win64 on 2023-06-12 at 20:34:41 UTC

; 

; external perimeters extrusion width = 0.42mm
; perimeters extrusion width = 0.44mm
; infill extrusion width = 0.44mm
; solid infill extrusion width = 0.44mm
; top infill extrusion width = 0.40mm
; first layer extrusion width = 0.42mm

; external perimeters extrusion width = 0.42mm
; perimeters extrusion width = 0.44mm
; infill extrusion width = 0.44mm
; solid infill extrusion width = 0.44mm
; top infill extrusion width = 0.40mm
; first layer extrusion width = 0.42mm

M107
;TYPE:Custom
G90 ; use absolute coordinates
M83 ; extruder relative mode
M140 S60 ; set final bed temp
M104 S150 ; set temporary nozzle temp to prevent oozing during homing and auto bed leveling
G4 S10 ; allow partial nozzle warmup
G28 ; home all axis
G29 ; auto bed levelling
G1 Z50 F240
G1 X2 Y10 F3000
M104 S205 ; set final nozzle temp
M190 S60 ; wait for bed temp to stabilize
M109 S205 ; wait for nozzle temp to stabilize
G1 Z0.28 F240
G92 E0
G1 Y140 E10 F1500 ; prime the nozzle
G1 X2.3 F5000
G92 E0
G1 Y10 E10 F1200 ; prime the nozzle
G92 E0
G21 ; set units to millimeters
G90 ; use absolute coordinates
M83 ; use relative distances for extrusion
; Filament gcode
M107
;LAYER_CHANGE
;Z:0.2
;HEIGHT:0.2
;BEFORE_LAYER_CHANGE
G92 E0
;0.2


G1 E-5 F3600
G1 Z.2 F9000
;AFTER_LAYER_CHANGE
;0.2
G1 X43.602 Y139.714
G1 E5 F2400
M204 S500
;TYPE:Skirt/Brim
;WIDTH:0.42
G1 F1200
G1 X45.333 Y139.311 E.05574
G1 X46.882 Y139.182 E.04873
G1 X71.878 Y139.182 E.78374
G1 X73.275 Y139.289 E.04392
G1 X74.84 Y139.617 E.05015
G1 X76.971 Y140.466 E.07192
G1 X78.048 Y141.113 E.03939
G1 X79.123 Y141.945 E.04262
G1 X79.936 Y142.732 E.0355
G1 X80.888 Y143.905 E.04735
G1 X81.368 Y144.647 E.02771
G1 X81.973 Y145.827 E.04157
G1 X82.561 Y147.504 E.05574
G1 X82.854 Y148.985 E.04734
G1 X83.995 Y158.458 E.29917
G1 X84.293 Y196.033 E1.17817
G1 X84.203 Y196.954 E.029
G1 X84.005 Y197.631 E.0221
G1 X83.709 Y198.233 E.02105
G1 X83.297 Y198.805 E.0221
G1 X82.712 Y199.359 E.02524
G1 X82.151 Y199.726 E.02104
G1 X81.504 Y200.006 E.02211
G1 X80.216 Y200.228 E.04098
G1 X38.476 Y200.228 E1.30871
G1 X37.729 Y200.149 E.02355
G1 X37.062 Y199.961 E.02175
G1 X36.453 Y199.678 E.02105
G1 X35.875 Y199.274 E.0221
G1 X35.054 Y198.347 E.03883
G1 X34.724 Y197.724 E.02211
G1 X34.517 Y197.085 E.02104
G1 X34.4 Y196.141 E.02982
G1 X34.762 Y158.453 E1.18177
G1 X35.903 Y148.985 E.29898
G1 X36.157 Y147.65 E.04261
G1 X36.654 Y146.129 E.05018
G1 X37.729 Y144.103 E.07192
G1 X38.49 Y143.103 E.03939
G1 X39.433 Y142.125 E.04262
G1 X40.305 Y141.402 E.0355
G1 X41.574 Y140.583 E.04735
G1 X42.363 Y140.187 E.02771
G1 X43.546 Y139.735 E.03969
G1 E-3.5 F3600
;WIPE_START
G1 F7200
G1 X45.333 Y139.311 E-.87262
G1 X46.492 Y139.214 E-.55238
;WIPE_END
G1 E-.075 F3600
G1 X39.187 Y195.517 F9000
G1 E5 F2400
;TYPE:Perimeter
;WIDTH:0.419999
G1 F1200
G1 X40.542 Y184.479 E.34869
G1 X40.728 Y183.534 E.03021
G1 X41.034 Y182.661 E.02901
G1 X41.464 Y181.838 E.0291
G1 X42.004 Y181.089 E.02895
G1 X42.577 Y180.496 E.02587
G1 X43.027 Y180.107 E.01865
G1 X43.908 Y179.541 E.03284
G1 X44.848 Y179.13 E.03213
G1 X45.844 Y178.873 E.03227
G1 X46.903 Y178.775 E.03334
G1 X71.8 Y178.775 E.78064
G1 X72.746 Y178.856 E.02976
G1 X73.647 Y179.065 E.02902
G1 X74.512 Y179.403 E.0291
G1 X75.315 Y179.858 E.02895
G1 X75.968 Y180.364 E.02589
G1 X76.403 Y180.769 E.01863
G1 X77.062 Y181.583 E.03285
G1 X77.572 Y182.472 E.03213
G1 X77.936 Y183.435 E.03227
G1 X78.15 Y184.484 E.03356
G1 X79.505 Y195.517 E.34855
G1 X39.247 Y195.517 E1.26226
G1 X38.761 Y195.894 F9000
G1 F1200
G1 X40.17 Y184.42 E.36247
G1 X40.363 Y183.435 E.03148
G1 X40.687 Y182.51 E.03071
G1 X41.142 Y181.64 E.0308
G1 X41.714 Y180.847 E.03065
G1 X42.4 Y180.137 E.03097
G1 X42.804 Y179.802 E.01645
G1 X43.73 Y179.207 E.0345
G1 X44.724 Y178.773 E.03402
G1 X45.779 Y178.501 E.03416
G1 X46.885 Y178.398 E.03483
G1 X71.817 Y178.398 E.7817
G1 X72.805 Y178.482 E.03111
G1 X73.759 Y178.704 E.03071
G1 X74.674 Y179.061 E.0308
G1 X75.525 Y179.544 E.03065
G1 X76.305 Y180.149 E.03097
G1 X76.682 Y180.514 E.01645
G1 X77.374 Y181.369 E.0345
G1 X77.914 Y182.311 E.03402
G1 X78.299 Y183.33 E.03416
G1 X78.523 Y184.423 E.03497
G1 X79.931 Y195.894 E.36239
G1 X38.821 Y195.894 E1.28899
G1 X38.361 Y196.059 F9000
;TYPE:External perimeter
G1 F1200
G1 X39.797 Y184.361 E.36954
G1 X39.998 Y183.335 E.03276
G1 X40.341 Y182.36 E.03241
G1 X40.82 Y181.441 E.0325
G1 X41.424 Y180.604 E.03235
G1 X42.143 Y179.859 E.03248
G1 X42.581 Y179.497 E.01782
G1 X43.551 Y178.874 E.03615
G1 X44.601 Y178.415 E.03591
G1 X45.714 Y178.128 E.03605
G1 X46.868 Y178.021 E.03633
G1 X71.833 Y178.021 E.78275
G1 X72.864 Y178.109 E.03246
G1 X73.871 Y178.343 E.03241
G1 X74.837 Y178.72 E.0325
G1 X75.734 Y179.229 E.03235
G1 X76.553 Y179.863 E.03248
G1 X76.961 Y180.259 E.01782
G1 X77.686 Y181.156 E.03615
G1 X78.256 Y182.149 E.03591
G1 X78.662 Y183.225 E.03605
G1 X78.895 Y184.362 E.03639
G1 X80.327 Y196.026 E.36848
G1 X80.3 Y196.183 E.00498
G1 X80.155 Y196.271 E.00535
G1 X38.615 Y196.271 E1.30246
G1 X38.426 Y196.215 E.00617
G1 X38.384 Y196.114 E.00343
G1 X38.658 Y195.791 F9000
G1 E-3.5 F3600
;WIPE_START
G1 F7200
G1 X38.742 Y193.136 E-1.425
;WIPE_END
G1 E-.075 F3600
G1 X71.97 Y182.835 F9000
G1 E5 F2400
;TYPE:Perimeter
G1 F1200
G1 X72.059 Y182.838 E.00282
G1 X72.317 Y182.939 E.00869
G1 X75.253 Y184.635 E.1063
G1 X75.477 Y184.814 E.009
G1 X75.668 Y185.13 E.01157
G1 X75.725 Y185.451 E.01022
G1 X75.725 Y188.841 E.1063
G1 X75.684 Y189.115 E.00867
G1 X75.575 Y189.351 E.00817
G1 X75.422 Y189.533 E.00743
G1 X74.676 Y189.991 E.02744
G1 X72.317 Y191.353 E.08541
G1 X72.009 Y191.465 E.01029
G1 X71.683 Y191.465 E.01021
G1 X71.375 Y191.353 E.01029
G1 X68.439 Y189.658 E.1063
G1 X68.177 Y189.434 E.01078
G1 X68.03 Y189.18 E.0092
G1 X67.967 Y188.841 E.01081
G1 X67.967 Y185.451 E.1063
G1 X68.03 Y185.112 E.01081
G1 X68.177 Y184.858 E.0092
G1 X68.439 Y184.635 E.01078
G1 X71.375 Y182.939 E.1063
G1 X71.683 Y182.827 E.01029
G1 X71.91 Y182.833 E.00711
G1 X71.955 Y183.216 F9000
G1 F1200
G1 X72.073 Y183.238 E.00375
G1 X75.065 Y184.961 E.10827
G1 X75.199 Y185.069 E.0054
G1 X75.343 Y185.382 E.01081
G1 X75.348 Y185.451 E.00217
G1 X75.348 Y188.841 E.1063
G1 X75.258 Y189.147 E.01
G1 X75.166 Y189.256 E.00446
G1 X72.129 Y191.026 E.11023
G1 X71.846 Y191.102 E.00918
G1 X71.563 Y191.026 E.00918
G1 X68.627 Y189.331 E.1063
G1 X68.418 Y189.121 E.00929
G1 X68.344 Y188.841 E.00907
G1 X68.344 Y185.451 E.1063
G1 X68.418 Y185.171 E.00907
G1 X68.627 Y184.961 E.00929
G1 X71.563 Y183.266 E.1063
G1 X71.821 Y183.191 E.00841
G1 X71.896 Y183.205 E.0024
G1 X71.889 Y183.572 F9000
;TYPE:External perimeter
G1 F1200
G1 X74.876 Y185.288 E.10802
G1 X74.969 Y185.428 E.00528
G1 X74.97 Y188.841 E.10702
G1 X74.91 Y188.979 E.00473
G1 X71.94 Y190.7 E.10761
G1 X71.796 Y190.718 E.00455
G1 X68.816 Y189.004 E.1078
G1 X68.726 Y188.885 E.00468
G1 X68.721 Y185.451 E.10766
G1 X68.787 Y185.308 E.00492
G1 X68.816 Y185.288 E.00112
G1 X71.752 Y183.593 E.1063
G1 X71.829 Y183.581 E.00246
G1 X72.147 Y183.267 F9000
G1 E-3.5 F3600
;WIPE_START
G1 F7200
G1 X74.447 Y185.047 E-1.425
;WIPE_END
G1 E-.075 F3600
G1 X50.426 Y189.51 F9000
G1 E5 F2400
;TYPE:Perimeter
G1 F1200
G1 X50.253 Y189.658 E.0071
G1 X47.317 Y191.353 E.1063
G1 X47.009 Y191.465 E.01029
G1 X46.683 Y191.465 E.01021
G1 X46.375 Y191.353 E.01029
G1 X43.439 Y189.658 E.1063
G1 X43.269 Y189.533 E.00659
G1 X43.117 Y189.351 E.00743
G1 X43.008 Y189.115 E.00817
G1 X42.967 Y188.841 E.00867
G1 X42.967 Y185.451 E.1063
G1 X43.025 Y185.126 E.01034
G1 X43.194 Y184.838 E.01047
G1 X43.439 Y184.635 E.00998
G1 X46.375 Y182.939 E.1063
G1 X46.638 Y182.836 E.00886
G1 X47.009 Y182.827 E.01164
G1 X47.317 Y182.939 E.01029
G1 X50.253 Y184.635 E.1063
G1 X50.515 Y184.858 E.01078
G1 X50.662 Y185.112 E.0092
G1 X50.725 Y185.451 E.01081
G1 X50.725 Y188.841 E.1063
G1 X50.662 Y189.18 E.01081
G1 X50.515 Y189.434 E.0092
G1 X50.471 Y189.471 E.00179
G1 X50.13 Y189.265 F9000
G1 F1200
G1 X50.065 Y189.331 E.00291
G1 X47.129 Y191.026 E.1063
G1 X46.846 Y191.102 E.00918
G1 X46.563 Y191.026 E.00918
G1 X43.627 Y189.331 E.1063
G1 X43.434 Y189.147 E.00835
G1 X43.344 Y188.841 E.01
G1 X43.344 Y185.451 E.1063
G1 X43.379 Y185.256 E.00621
G1 X43.48 Y185.083 E.00628
G1 X43.627 Y184.961 E.00599
G1 X46.563 Y183.266 E.1063
G1 X46.793 Y183.193 E.00758
G1 X47.008 Y183.214 E.00677
G1 X47.129 Y183.266 E.00411
G1 X50.065 Y184.961 E.1063
G1 X50.274 Y185.171 E.00929
G1 X50.348 Y185.451 E.00907
G1 X50.348 Y188.841 E.1063
G1 X50.274 Y189.121 E.00907
G1 X50.172 Y189.223 E.0045
G1 X49.876 Y189.004 F9000
;TYPE:External perimeter
G1 F1200
G1 X46.94 Y190.7 E.1063
G1 X46.796 Y190.718 E.00455
G1 X43.816 Y189.004 E.1078
G1 X43.729 Y188.896 E.00435
G1 X43.721 Y188.841 E.00173
G1 X43.721 Y185.451 E.1063
G1 X43.767 Y185.328 E.0041
G1 X46.752 Y183.593 E.10827
G1 X46.9 Y183.575 E.00469
G1 X49.876 Y185.288 E.10766
G1 X49.965 Y185.407 E.00468
G1 X49.97 Y185.451 E.00137
G1 X49.97 Y188.841 E.1063
G1 X49.915 Y188.962 E.00415
G1 X50.01 Y189.382 F9000
G1 E-3.5 F3600
;WIPE_START
G1 F7200
G1 X47.325 Y190.475 E-1.425
;WIPE_END
G1 E-.075 F3600
G1 X75.091 Y179.87 F9000
G1 E5 F2400
;TYPE:Solid infill
;WIDTH:0.423015
G1 F1200
G1 X76.196 Y180.975 E.04942
G1 X76.821 Y181.748 E.0314
G1 X77.325 Y182.642 E.03243
G1 X74.325 Y179.642 E.1341
G1 X73.468 Y179.322 E.02892
G1 X77.652 Y183.506 E.18702
G1 X77.793 Y184.184 E.02189
G1 X72.767 Y179.159 E.22461
G1 X72.169 Y179.098 E.01902
G1 X77.9 Y184.829 E.25618
G1 X77.975 Y185.442 E.01951
G1 X71.598 Y179.065 E.28502
G1 X71.061 Y179.065 E.01699
G1 X78.051 Y186.055 E.31241
G1 X78.126 Y186.668 E.01951
G1 X70.523 Y179.065 E.3398
G1 X69.986 Y179.065 E.01699
G1 X78.201 Y187.28 E.36719
G1 X78.276 Y187.893 E.01951
G1 X76.015 Y185.632 E.10108
G1 X76.015 Y186.169 E.01698
G1 X78.352 Y188.506 E.10445
G1 X78.427 Y189.119 E.01951
G1 X76.014 Y186.706 E.10782
G1 X76.014 Y187.244 E.01698
G1 X78.502 Y189.731 E.1112
G1 X78.577 Y190.344 E.01951
G1 X76.014 Y187.781 E.11457
G1 X76.014 Y188.318 E.01698
G1 X78.653 Y190.957 E.11794
G1 X78.728 Y191.57 E.01951
G1 X76.014 Y188.856 E.12132
G1 X75.963 Y189.2 E.01101
G1 X75.918 Y189.297 E.00338
G1 X78.803 Y192.183 E.12896
G1 X78.878 Y192.795 E.01951
G1 X75.716 Y189.633 E.14135
G1 X75.621 Y189.746 E.00467
G1 X75.431 Y189.886 E.00745
G1 X78.953 Y193.408 E.15744
G1 X79.029 Y194.021 E.01951
G1 X75.093 Y190.085 E.1759
G1 X74.752 Y190.282 E.01244
G1 X79.104 Y194.634 E.1945
G1 X79.177 Y195.227 E.01889
G1 X74.412 Y190.479 E.21261
G1 X74.071 Y190.676 E.01244
G1 X78.622 Y195.227 E.20343
G1 X78.085 Y195.227 E.01699
G1 X73.73 Y190.872 E.19464
G1 X73.389 Y191.069 E.01244
G1 X77.547 Y195.227 E.18584
G1 X77.01 Y195.227 E.01699
G1 X73.048 Y191.266 E.17705
G1 X72.708 Y191.463 E.01244
G1 X76.472 Y195.227 E.16826
G1 X75.935 Y195.227 E.01699
G1 X72.357 Y191.649 E.15992
G1 X72.17 Y191.727 E.00638
G1 X71.929 Y191.759 E.0077
G1 X75.397 Y195.227 E.155
G1 X74.859 Y195.227 E.01699
G1 X71.243 Y191.611 E.16163
G1 X69.975 Y190.88 E.04628
G1 X74.492 Y195.397 E.20189
G1 E-3.5 F3600
;WIPE_START
G1 F7200
G1 X72.37 Y193.275 E-1.425
;WIPE_END
G1 E-.075 F3600
G1 X69.279 Y178.895 F9000
G1 E5 F2400
G1 F1200
G1 X73.912 Y183.529 E.2071
G1 X72.648 Y182.802 E.04607
G1 X68.911 Y179.065 E.16705
G1 X68.373 Y179.065 E.01699
G1 X71.839 Y182.531 E.15493
G1 X71.636 Y182.54 E.00642
G1 X71.389 Y182.619 E.0082
G1 X67.836 Y179.065 E.15882
G1 X67.298 Y179.065 E.01699
G1 X71.034 Y182.801 E.16697
G1 X70.693 Y182.998 E.01244
G1 X66.761 Y179.065 E.17577
G1 X66.223 Y179.065 E.01699
G1 X70.352 Y183.194 E.18456
G1 X70.012 Y183.391 E.01244
G1 X65.686 Y179.065 E.19335
G1 X65.148 Y179.065 E.01699
G1 X69.671 Y183.588 E.20215
G1 X69.33 Y183.785 E.01244
G1 X64.611 Y179.065 E.21094
G1 X64.073 Y179.065 E.01699
G1 X68.989 Y183.981 E.21974
G1 X68.648 Y184.178 E.01244
G1 X63.535 Y179.065 E.22853
G1 X62.998 Y179.065 E.01699
G1 X68.308 Y184.375 E.23733
G1 X68.103 Y184.518 E.00789
G1 X68.01 Y184.614 E.00425
G1 X62.46 Y179.065 E.24803
G1 X61.923 Y179.065 E.01699
G1 X67.798 Y184.94 E.2626
G1 X67.71 Y185.165 E.00764
G1 X67.686 Y185.366 E.00638
G1 X61.385 Y179.065 E.28162
G1 X60.848 Y179.065 E.01699
G1 X67.677 Y185.894 E.30523
G1 X67.677 Y186.432 E.01699
G1 X60.31 Y179.065 E.32926
G1 X59.773 Y179.065 E.01699
G1 X67.677 Y186.969 E.35329
G1 X67.677 Y187.507 E.01699
G1 X59.235 Y179.065 E.37731
G1 X58.698 Y179.065 E.01699
G1 X67.677 Y188.044 E.40134
G1 X67.677 Y188.582 E.01699
G1 X58.16 Y179.065 E.42536
G1 X57.623 Y179.065 E.01699
G1 X73.784 Y195.227 E.72238
G1 X73.247 Y195.227 E.01699
G1 X57.085 Y179.065 E.72238
G1 X56.547 Y179.065 E.01699
G1 X72.709 Y195.227 E.72238
G1 X72.172 Y195.227 E.01699
G1 X56.01 Y179.065 E.72238
G1 X55.472 Y179.065 E.01699
G1 X71.634 Y195.227 E.72238
G1 X71.097 Y195.227 E.01699
G1 X54.935 Y179.065 E.72238
G1 X54.397 Y179.065 E.01699
G1 X70.559 Y195.227 E.72238
G1 X70.022 Y195.227 E.01699
G1 X53.86 Y179.065 E.72238
G1 X53.322 Y179.065 E.01699
G1 X69.484 Y195.227 E.72238
G1 X68.947 Y195.227 E.01699
G1 X52.785 Y179.065 E.72238
G1 X52.247 Y179.065 E.01699
G1 X68.409 Y195.227 E.72238
G1 X67.872 Y195.227 E.01699
G1 X51.71 Y179.065 E.72238
G1 X51.172 Y179.065 E.01699
G1 X67.334 Y195.227 E.72238
G1 X66.796 Y195.227 E.01699
G1 X50.635 Y179.065 E.72238
G1 X50.097 Y179.065 E.01699
G1 X66.259 Y195.227 E.72238
G1 X65.721 Y195.227 E.01699
G1 X49.559 Y179.065 E.72238
G1 X49.022 Y179.065 E.01699
G1 X65.184 Y195.227 E.72238
G1 X64.646 Y195.227 E.01699
G1 X48.484 Y179.065 E.72238
G1 X47.947 Y179.065 E.01699
G1 X64.109 Y195.227 E.72238
G1 X63.571 Y195.227 E.01699
G1 X47.409 Y179.065 E.72238
G1 X46.876 Y179.069 E.01687
G1 X63.034 Y195.227 E.72221
G1 X62.496 Y195.227 E.01699
G1 X46.384 Y179.115 E.72016
G1 X45.892 Y179.161 E.0156
G1 X61.959 Y195.227 E.7181
G1 X61.421 Y195.227 E.01699
G1 X45.465 Y179.271 E.71317
G1 X45.038 Y179.381 E.01395
G1 X49.55 Y183.893 E.20166
G1 X50.403 Y184.385 E.03113
G1 X50.589 Y184.518 E.00722
G1 X50.74 Y184.675 E.00689
G1 X50.856 Y184.844 E.00647
G1 X50.982 Y185.165 E.01092
G1 X51.004 Y185.347 E.00578
G1 X60.884 Y195.227 E.4416
G1 X60.346 Y195.227 E.01699
G1 X51.015 Y185.896 E.41706
G1 X51.015 Y186.433 E.01699
G1 X59.808 Y195.227 E.39304
G1 X59.271 Y195.227 E.01699
G1 X51.015 Y186.971 E.36901
G1 X51.015 Y187.509 E.01699
G1 X58.733 Y195.227 E.34498
G1 X58.196 Y195.227 E.01699
G1 X51.015 Y188.046 E.32096
G1 X51.015 Y188.584 E.01699
G1 X57.658 Y195.227 E.29693
G1 X57.121 Y195.227 E.01699
G1 X50.986 Y189.092 E.27419
G1 X50.835 Y189.479 E.01311
G1 X56.583 Y195.227 E.25692
G1 X56.046 Y195.227 E.01699
G1 X50.591 Y189.772 E.24381
G1 X50.266 Y189.985 E.01227
G1 X55.508 Y195.227 E.23429
G1 X54.971 Y195.227 E.01699
G1 X49.926 Y190.182 E.22549
G1 X49.585 Y190.379 E.01244
G1 X54.433 Y195.227 E.2167
G1 X53.896 Y195.227 E.01699
G1 X49.244 Y190.575 E.2079
G1 X48.903 Y190.772 E.01244
G1 X53.358 Y195.227 E.19911
G1 X52.821 Y195.227 E.01699
G1 X48.563 Y190.969 E.19032
G1 X48.222 Y191.166 E.01244
G1 X52.283 Y195.227 E.18152
G1 X51.745 Y195.227 E.01699
G1 X47.881 Y191.362 E.17273
G1 X47.54 Y191.559 E.01244
G1 X51.208 Y195.227 E.16393
G1 X50.67 Y195.227 E.01699
G1 X47.17 Y191.727 E.15644
G1 X46.846 Y191.77 E.01034
G1 X46.65 Y191.744 E.00625
G1 X50.133 Y195.227 E.15568
G1 X49.595 Y195.227 E.01699
G1 X45.158 Y190.79 E.19833
G1 E-3.5 F3600
;WIPE_START
G1 F7200
G1 X47.279 Y192.911 E-1.425
;WIPE_END
G1 E-.075 F3600
G1 X48.741 Y183.622 F9000
G1 E5 F2400
G1 F1200
G1 X44.652 Y179.533 E.18278
G1 X44.278 Y179.696 E.0129
G1 X47.142 Y182.561 E.12804
G1 X47.055 Y182.54 E.00283
G1 X46.734 Y182.527 E.01016
G1 X46.595 Y182.551 E.00445
G1 X43.921 Y179.877 E.11952
G1 X43.594 Y180.088 E.01229
G1 X46.207 Y182.701 E.11679
G1 X45.866 Y182.898 E.01244
G1 X43.267 Y180.298 E.11619
G1 X43.199 Y180.342 E.00256
G1 X42.966 Y180.535 E.00955
G1 X45.526 Y183.094 E.11441
G1 X45.185 Y183.291 E.01244
G1 X42.69 Y180.796 E.1115
G1 X42.426 Y181.07 E.01201
G1 X44.844 Y183.488 E.10807
G1 X44.503 Y183.685 E.01244
G1 X42.172 Y181.353 E.10422
G1 X41.946 Y181.665 E.01217
G1 X44.163 Y183.881 E.09905
G1 X43.822 Y184.078 E.01244
G1 X41.721 Y181.977 E.09389
G1 X41.535 Y182.329 E.01257
G1 X43.481 Y184.275 E.08698
G1 X43.286 Y184.387 E.00712
